O0001
(This Post Processor is distributed on an "AS IS" BASIS,)
(WITHOUT WARRANTIES OR CONDITIONS OF ANY KIND, either express or implied.)
N1 (CNMG 431 80DEG SQR HOLDER)
N2 T0101
N3 B90.
N4 G00 G96 S548 M03

N5 ( Planschruppen1 )
N6 G54 G00 Z.354 M08
N7 X20.707
N8 G01 X14. Z-3. F.409
N9 X-.8
N10 X-1.507 Z-2.646
N11 G00 Z.354
N12 X14.707
N13 Z-5.396
N14 G01 X14. Z-5.75
N15 X-.8
N16 X-1.507 Z-5.396
N17 G00 Z-2.396
N18 X14.707
N19 Z-8.146
N20 G01 X14. Z-8.5
N21 X-.8
N22 X-1.507 Z-8.146
N23 G00 Z-5.146
N24 X14.707
N25 Z-10.896
N26 G01 X14. Z-11.25
N27 X-.8
N28 X-1.507 Z-10.896
N29 G00 Z-7.896
N30 X14.707
N31 Z-13.646
N32 G01 X14. Z-14.
N33 X-.8
N34 X-1.507 Z-13.646
N35 G00 Z-10.646
N36 X14.707
N37 Z-16.396
N38 G01 X14. Z-16.75
N39 X-.8
N40 X-1.507 Z-16.396
N41 G00 Z-13.396
N42 X14.707
N43 Z-19.146
N44 G01 X14. Z-19.5
N45 X-.8
N46 X-1.507 Z-19.146
N47 G00 Z-16.146
N48 X14.707
N49 Z-20.146
N50 G01 X14. Z-20.5
N51 X-.8
N52 X-1.507 Z-20.146
N53 G00 Z2.6
N54 X508. Z127. M09
N55 M01

N56 (DNMG 431 80DEG SQR HOLDER)
N57 T0303
N58 B90.
N59 G00 G96 S548 M03

N60 ( Planschlichten1 )
N61 G54 G00 Z-17.646 M08
N62 X19.907
N63 G01 X13.2 Z-21. F.409
N64 X-.8
N65 X-1.507 Z-20.646
N66 G00 X508. Z127. M09
N67 M01

N68 (CNMG 431 80DEG SQR HOLDER)
N69 T0101
N70 B90.
N71 G00 G96 S548 M03

N72 ( Schruppdrehen1 )
N73 G54 G00 Z-45.913 M08
N74 X20.788
N75 G01 X14.788 Z-48.913 F.409
N76 X14. Z-49.221
N77 X11.209 Z-60.586
N78 Z-61.4
N79 X11.916 Z-61.754
N80 X12.816
N81 G00 X17.916
N82 Z-60.586
N83 X12.215
N84 G01 X11.209
N85 X11.009 Z-61.4
N86 X11.716 Z-61.754
N87 G00 X20.215
N88 Z-20.775
N89 X14.215
N90 G01 X13.85 Z-21.24
N91 G03 X14. Z-21.6 R.9
N92 G01 X14.707 Z-21.954
N93 G00 Z-40.606
N94 G01 X14. Z-40.96
N95 G03 X13.987 Z-41.07 R.9
N96 G01 X8.982 Z-61.449
N97 X9.598 Z-61.843
N98 G00 X19.2
N99 X508. Z127. M09
N100 M01

N101 (DNMG 431 80DEG SQR HOLDER)
N102 T0303
N103 B90.
N104 G00 G96 S548 M03

N105 ( Drehschlichten1 )
N106 G54 G00 Z-17.617 M08
N107 X18.366
N108 G01 X12.366 Z-20.617 F.409
N109 Z-21.117
N110 X12.766 Z-21.317
N111 G03 X13. Z-21.6 R.4
N112 G01 Z-40.96
N113 G03 X12.925 Z-41.129 R.4
N114 G01 X5.795 Z-48.774
N115 G02 X6.677 Z-55.786 R15.6
N116 G03 X6.702 Z-55.843 R.4
N117 G01 X6.992 Z-56.843
N118 G03 X7. Z-56.9 R.4
N119 X6.269 Z-58.548 R3.9
N120 G01 X3.452 Z-61.569
N121 X3.794 Z-62.039
N122 G00 X19.
N123 X508. Z127. M09
N124 M01

N125 (1MM GROOVE OD HOLDER)
N126 T0505
N127 B90.
N128 G00 G97 S6589 M03

N129 ( Nutschruppen1 )
N130 G54 G00 Z-34.46 M08
N131 X13.4
N132 G01 X13.2 Z-34.56 F.063
N133 G00 X13.
N134 G01 X9.02
N135 G00 X13.2
N136 Z-34.462
N137 X13.
N138 G01 X9.02
N139 G00 X13.2
N140 Z-34.364
N141 X13.
N142 G01 X9.02
N143 G00 X13.2
N144 Z-34.266
N145 X13.
N146 G01 X9.02
N147 G00 X13.2
N148 Z-34.168
N149 X13.
N150 G01 X9.033
N151 G00 X13.2
N152 Z-34.07
N153 X13.
N154 G01 X9.3
N155 G00 X13.2
N156 Z-33.995
N157 X13.
N158 G01 X12.7
N159 G00 X13.2
N160 Z-33.92
N161 X13.
N162 G01 X12.85
N163 G00 X13.22
N164 Z-33.845
N165 X13.02
N166 G01 X13.
N167 G00 X13.2
N168 Z-34.658
N169 X13.
N170 G01 X9.02
N171 G00 X13.2
N172 Z-34.756
N173 X13.
N174 G01 X9.02
N175 G00 X13.2
N176 Z-34.854
N177 X13.
N178 G01 X9.02
N179 G00 X13.2
N180 Z-34.952
N181 X13.
N182 G01 X9.033
N183 G00 X13.2
N184 Z-35.05
N185 X13.
N186 G01 X9.3
N187 G00 X13.2
N188 Z-35.125
N189 X13.
N190 G01 X12.7
N191 G00 X13.2
N192 Z-35.2
N193 X13.
N194 G01 X12.85
N195 G00 X13.22
N196 Z-35.275
N197 X13.02
N198 G01 X13.
N199 G00 X13.2
N200 X508. Z127. M09
N201 M01

N202 (1MM GROOVE OD HOLDER)
N203 T0707
N204 B90.
N205 G00 G97 S7739 M03
N206 G98

N207 ( Nutschlichten1 )
N208 G54 G00 Z-34.175 M08
N209 X13.271
N210 G01 X13.071 Z-34.275 F707.7
N211 X12.971
N212 X12.541 Z-34.06
N213 X9.3
N214 G03 X9. Z-33.91 R.15
N215 G00 X13.071
N216 Z-32.945
N217 G01 Z-32.845
N218 X12.971
N219 X12.541 Z-33.06
N220 X9.3
N221 G02 X9. Z-33.21 R.15
N222 G01 Z-33.91
N223 G00 X13.171
N224 X508. Z127. M09
N225 M01

N226 (1MM GROOVE OD HOLDER)
N227 T0505
N228 B90.
N229 G00 G97 S6589 M03
N230 G99

N231 ( Nutschruppen2 )
N232 G54 G00 Z-30.46 M08
N233 X13.4
N234 G01 X13.2 Z-30.56 F.063
N235 G00 X13.
N236 G01 X9.02
N237 G00 X13.2
N238 Z-30.462
N239 X13.
N240 G01 X9.02
N241 G00 X13.2
N242 Z-30.364
N243 X13.
N244 G01 X9.02
N245 G00 X13.2
N246 Z-30.266
N247 X13.
N248 G01 X9.02
N249 G00 X13.2
N250 Z-30.168
N251 X13.
N252 G01 X9.033
N253 G00 X13.2
N254 Z-30.07
N255 X13.
N256 G01 X9.3
N257 G00 X13.2
N258 Z-29.995
N259 X13.
N260 G01 X12.7
N261 G00 X13.2
N262 Z-29.92
N263 X13.
N264 G01 X12.85
N265 G00 X13.22
N266 Z-29.845
N267 X13.02
N268 G01 X13.
N269 G00 X13.2
N270 Z-30.658
N271 X13.
N272 G01 X9.02
N273 G00 X13.2
N274 Z-30.756
N275 X13.
N276 G01 X9.02
N277 G00 X13.2
N278 Z-30.854
N279 X13.
N280 G01 X9.02
N281 G00 X13.2
N282 Z-30.952
N283 X13.
N284 G01 X9.033
N285 G00 X13.2
N286 Z-31.05
N287 X13.
N288 G01 X9.3
N289 G00 X13.2
N290 Z-31.125
N291 X13.
N292 G01 X12.7
N293 G00 X13.2
N294 Z-31.2
N295 X13.
N296 G01 X12.85
N297 G00 X13.22
N298 Z-31.275
N299 X13.02
N300 G01 X13.
N301 G00 X13.2
N302 X508. Z127. M09
N303 M01

N304 (1MM GROOVE OD HOLDER)
N305 T0707
N306 B90.
N307 G00 G97 S7739 M03
N308 G98

N309 ( Nutschlichten2 )
N310 G54 G00 Z-30.175 M08
N311 X13.271
N312 G01 X13.071 Z-30.275 F707.7
N313 X12.971
N314 X12.541 Z-30.06
N315 X9.3
N316 G03 X9. Z-29.91 R.15
N317 G00 X13.071
N318 Z-28.945
N319 G01 Z-28.845
N320 X12.971
N321 X12.541 Z-29.06
N322 X9.3
N323 G02 X9. Z-29.21 R.15
N324 G01 Z-29.91
N325 G00 X13.171
N326 X508. Z127. M09
N327 M01

N328 (1MM GROOVE OD HOLDER)
N329 T0505
N330 B90.
N331 G00 G97 S6589 M03
N332 G99

N333 ( Nutschruppen3 )
N334 G54 G00 Z-26.46 M08
N335 X13.4
N336 G01 X13.2 Z-26.56 F.063
N337 G00 X13.
N338 G01 X9.02
N339 G00 X13.2
N340 Z-26.462
N341 X13.
N342 G01 X9.02
N343 G00 X13.2
N344 Z-26.364
N345 X13.
N346 G01 X9.02
N347 G00 X13.2
N348 Z-26.266
N349 X13.
N350 G01 X9.02
N351 G00 X13.2
N352 Z-26.168
N353 X13.
N354 G01 X9.033
N355 G00 X13.2
N356 Z-26.07
N357 X13.
N358 G01 X9.3
N359 G00 X13.2
N360 Z-25.995
N361 X13.
N362 G01 X12.7
N363 G00 X13.2
N364 Z-25.92
N365 X13.
N366 G01 X12.85
N367 G00 X13.22
N368 Z-25.845
N369 X13.02
N370 G01 X13.
N371 G00 X13.2
N372 Z-26.658
N373 X13.
N374 G01 X9.02
N375 G00 X13.2
N376 Z-26.756
N377 X13.
N378 G01 X9.02
N379 G00 X13.2
N380 Z-26.854
N381 X13.
N382 G01 X9.02
N383 G00 X13.2
N384 Z-26.952
N385 X13.
N386 G01 X9.033
N387 G00 X13.2
N388 Z-27.05
N389 X13.
N390 G01 X9.3
N391 G00 X13.2
N392 Z-27.125
N393 X13.
N394 G01 X12.7
N395 G00 X13.2
N396 Z-27.2
N397 X13.
N398 G01 X12.85
N399 G00 X13.22
N400 Z-27.275
N401 X13.02
N402 G01 X13.
N403 G00 X13.2
N404 X508. Z127. M09
N405 M01

N406 (1MM GROOVE OD HOLDER)
N407 T0707
N408 B90.
N409 G00 G97 S7739 M03
N410 G98

N411 ( Nutschlichten3 )
N412 G54 G00 Z-26.175 M08
N413 X13.271
N414 G01 X13.071 Z-26.275 F707.7
N415 X12.971
N416 X12.541 Z-26.06
N417 X9.3
N418 G03 X9. Z-25.91 R.15
N419 G00 X13.071
N420 Z-24.945
N421 G01 Z-24.845
N422 X12.971
N423 X12.541 Z-25.06
N424 X9.3
N425 G02 X9. Z-25.21 R.15
N426 G01 Z-25.91
N427 G00 X13.171
N428 X508. Z127. M09
N429 M30
